X:1
T:Maid on the Shore (2)
M:3/4
L:1/8
K:C
 D2 DD D2| D2 D2 B,2| C3 B, C2| A,4- A,3/2 G,/2| G2 G2 GG| G4 FF| G6|\
 G3/2 G/2G/2 G/2 AG D| D2 E2 G2|B,/2-A,/2 G,3 G, G,| A,4 A,3/2 A,/2|\
 B,4 CC| D4 G3/2 D/2| C4 C2| C4 D3/2 B,/2| C4 F,3/2 G,/2| G,6|
